X:1
T:Bonham, 87.87 D
T:Bonham, 87.87 D
T:James Holmes Rosecrans, 1882
T:Public Domain Courtesy of the Cyber Hymnal™
C:James Holmes Rosecrans, 1882
Z:Public Domain
Z:Courtesy of the Cyber Hymnal™
%%score ( 1 2 ) ( 3 4 )
L:1/8
Q:1/4=103
M:4/4
K:A
V:1 treble 
V:2 treble 
V:3 bass 
V:4 bass 
V:1
 [CE]3 [CE] [CE][CE][DF][CE] | [CE] [CA]4 z3 | [EB]3 [EB] [EB][EB][Ec][Ec] | [EB]6 z2 | %4
 [Ec]3 [Ec] [Ec][Ec][Ec][DB] | [CA] [DF]4 z3 | [CE]3 [CE] [DE][DE][DF][EG] | [EA]6 z2 | %8
 [Ec]3 [Ec] [Ec][Ec][Ec][Ec] | [Fd] [Fd]4 z3 | [Ec]3 [Ec] [Ec][Ec][Ee][Ee] | [EB]6 z2 | %12
 [EB]3 [Ec] [Ed][EG][EA][EB] | [Ec] [Ec]2 z3 | [DF]3 [FB] [EA]E[EF][EG] | [EA]6 z2 |] %16
V:2
 x8 | x8 | x8 | x8 | x8 | x8 | x8 | x8 | x8 | x8 | x8 | x8 | x8 | x6 | x5 E x2 | x8 |] %16
V:3
 [A,,A,]3 [A,,A,] [A,,A,][A,,A,][A,,A,][A,,A,] | [A,,A,] [A,,E,]4 z3 | %2
 [E,G,]3 [E,G,] [E,G,][E,G,]A,A, | [E,G,]6 z2 | A,3 A, A,A,A,[E,G,] | [F,A,] [D,A,]4 z3 | %6
 [E,A,]3 [E,A,] [E,B,][E,B,][E,B,][E,D] | [A,,C]6 z2 | A,3 A, A,A,A,A, | [D,A,] [D,A,]4 z3 | %10
 A,3 A, A,A,[C,A,][C,A,] | [E,G,]6 z2 | [E,G,]3 [E,A,] [E,B,][E,D][F,C][G,B,] | A, A,2 z3 | %14
 [D,A,]3 [D,D] [E,C][E,C][E,B,][E,D] | [A,,C]6 z2 |] %16
V:4
 x8 | x8 | x6 A,A, | x8 | A,3 A, A,A,A, x | x8 | x8 | x8 | A,3 A, A,A,A,A, | x8 | A,3 A, A,A, x2 | %11
 x8 | x8 | A, A,2 x3 | x8 | x8 |] %16

